graphics/apply_lut_to_images/moto_makusudi_ksouth.cube
TITLE "Generated by Resolve"
LUT_3D_SIZE 9
0 0.00230411 0.000686656
0.086183 0.0119478 0
0.238849 0.00834669 0
0.377111 0.00419623 0
0.506188 0 0
0.614862 0 0
0.713085 0 0
0.811994 0 0
0.90515 0 0
0 0.0189517 0.195865
0.0654154 0.0509194 0.0466773
0.262043 0.0756085 0
0.438605 0.0791943 0
0.570321 0.0730602 0
0.674937 0.0693523 0
0.775677 0.0611429 0
0.870375 0.0538949 0
0.957443 0.0480049 0
0 0.0425574 0.583322
0 0.142733 0.481163
0.305455 0.181231 0
0.593973 0.186847 0
0.720607 0.187427 0
0.808942 0.187259 0
0.880476 0.187915 0
0.946365 0.184604 0
1 0.176715 0
0 0.0870069 0.995422
0 0.25716 1
0.0912795 0.302266 0.246509
0.726894 0.315847 0
0.906722 0.307515 0
0.98468 0.303883 0
1 0.305226 0
1 0.302068 0
1 0.293919 0
0 0.140917 1
0 0.333257 1
0 0.50367 1
0.506462 0.463447 0
1 0.430655 0
1 0.417655 0
1 0.411276 0
1 0.404303 0
1 0.392996 0
0 0.183368 1
0 0.363088 1
0 0.592584 1
0 0.599023 0.688029
0.920043 0.542565 0
1 0.517327 0
1 0.506279 0
1 0.493355 0
1 0.475547 0
0 0.221515 1
0 0.361913 1
0 0.589715 1
0 0.712581 1
0.417288 0.574441 0.272725
1 0.606043 0
1 0.584848 0
1 0.566873 0
1 0.546426 0
0 0.247364 1
0 0.356512 1
0 0.558938 1
0 0.771664 1
0 0.772656 1
0.957961 0.686885 0
1 0.664668 0
1 0.641398 0
1 0.624704 0
0 0.270954 1
0 0.357855 1
0 0.543328 1
0 0.777264 1
0 0.871458 1
0.527687 0.691447 0.362356
1 0.737469 0
1 0.71696 0
1 0.707973 0
0 0.00401312 0.0808881
0.0737926 0.00894179 0.057908
0.202976 0.00515755 0.0589303
0.364401 0 0.0236362
0.500145 0 0
0.611719 0 0
0.712932 0 0
0.810315 0 0
0.903914 0 0
0 0.0427405 0.170199
0.0468147 0.0527657 0.106172
0.243366 0.0696574 0.0206607
0.432959 0.0699474 0
0.584726 0.05832 0
0.694896 0.0507362 0
0.788968 0.043946 0
0.878874 0.0348363 0
0.974853 0.0238804 0
0 0.0946517 0.362585
0 0.136873 0.420508
0.230228 0.172351 0.0477913
0.512734 0.193957 0
0.676524 0.192294 0
0.77496 0.190753 0
0.856321 0.184726 0
0.932876 0.175616 0
1 0.161868 0
0 0.135988 0.699641
0 0.224842 0.888411
0 0.320012 0.541955
0.570855 0.320119 0
0.842222 0.320562 0
0.942535 0.318318 0
1 0.312947 0
1 0.304356 0
1 0.288838 0
0 0.173312 1
0 0.286824 1
0 0.451942 1
0.29279 0.424979 0.253834
0.926802 0.444144 0
1 0.433631 0
1 0.426825 0
1 0.414664 0
1 0.397391 0
0 0.196765 1
0 0.312856 1
0 0.527703 1
0 0.626017 1
0.678172 0.565072 0
1 0.533837 0
1 0.51841 0
1 0.504402 0
1 0.488212 0
0 0.213428 1
0 0.317769 1
0 0.539895 1
0 0.717754 1
0.115694 0.628 0.530571
1 0.623865 0
1 0.600656 0
1 0.582223 0
1 0.564263 0
0 0.231113 1
0 0.323171 1
0 0.523247 1
0 0.760021 1
0 0.817777 1
0.616236 0.718456 0
1 0.678279 0
1 0.659342 0
1 0.643336 0
0 0.251682 1
0 0.328038 1
0 0.510781 1
0 0.76051 1
0 0.91632 1
0 0.827359 0.955581
1 0.763302 0
1 0.738003 0
1 0.734691 0
0 0.0246738 0.16907
0.0292821 0.00502022 0.231418
0.241382 0 0.27216
0.303975 0 0.16997
0.450156 0 0.145769
0.5879 0 0.119249
0.695888 0 0.103349
0.796155 0 0.101045
0.899092 0 0.0946212
0 0.0747234 0.241184
0 0.0691234 0.281209
0.224048 0.0508583 0.221378
0.383978 0.066041 0.152331
0.568872 0.0462196 0.109834
0.694591 0.0310063 0.0687419
0.791684 0.0189364 0.0476539
0.880751 0.00784314 0.0352941
0.970855 0 0.0269932
0 0.145769 0.3299
0 0.152758 0.402426
0.149844 0.167529 0.246433
0.429908 0.195743 0.118517
0.64004 0.194308 0.039292
0.771954 0.18027 0
0.86836 0.166217 0
0.959854 0.144472 0
1 0.12134 0
0 0.219684 0.428229
0 0.228702 0.630823
0 0.275425 0.667872
0.386191 0.314595 0.154986
0.689143 0.339849 0
0.836316 0.334737 0
0.927581 0.322683 0
1 0.304097 0
1 0.274952 0
0 0.281971 0.626825
0 0.286702 0.952758
0 0.359884 1
0 0.449653 0.734356
0.696361 0.454994 0
0.950973 0.455451 0
1 0.447013 0
1 0.429511 0
1 0.403784 0
0 0.328023 0.918044
0 0.315145 1
0 0.405966 1
0 0.55729 1
0.333684 0.552346 0.375113
0.986145 0.553201 0
1 0.541375 0
1 0.527474 0
1 0.507683 0
0 0.346426 1
0 0.333562 1
0 0.410193 1
0 0.624063 1
0 0.707759 1
0.734829 0.651423 0
1 0.62327 0
1 0.607538 0
1 0.592309 0
0 0.358892 1
0 0.342412 1
0 0.411826 1
0 0.646754 1
0 0.816342 1
0 0.767376 0.804532
1 0.707195 0
1 0.685252 0
1 0.675425 0
0 0.371756 1
0 0.360998 1
0 0.409903 1
0 0.634852 1
0 0.901228 1
0 0.926787 1
0.66627 0.804959 0.0183261
1 0.770947 0
1 0.7729 0
0 0.0420233 0.237995
0 0.0177615 0.349035
0.168887 0 0.369589
0.460945 0 0.471656
0.482322 0 0.312078
0.561578 0 0.270787
0.657526 0 0.259541
0.746075 0 0.259632
0.84271 0 0.260533
0 0.101686 0.332097
0 0.0925612 0.408606
0.12755 0.050782 0.425208
0.450782 0.0161746 0.428458
0.492088 0.0563058 0.291859
0.623865 0.0391241 0.269505
0.734707 0.0209506 0.245365
0.829786 0.00669871 0.23209
0.92987 0 0.220935
0 0.178088 0.482078
0 0.192691 0.504555
0 0.18558 0.503441
0.379385 0.182681 0.344427
0.580377 0.195941 0.291203
0.752697 0.17203 0.23978
0.862577 0.151125 0.194125
0.952743 0.125307 0.164889
1 0.10161 0.141665
0 0.250095 0.553582
0 0.272389 0.574823
0 0.289494 0.617075
0.271443 0.32018 0.402197
0.589136 0.350484 0.272923
0.787549 0.343297 0.19971
0.911116 0.320348 0.145113
1 0.286122 0.0986343
1 0.245518 0.0618448
0 0.336919 0.592432
0 0.35404 0.686076
0 0.359716 0.87158
0 0.398871 0.836271
0.515999 0.451438 0.332296
0.79234 0.480064 0.186297
0.934218 0.469368 0.135042
1 0.443565 0.0931106
1 0.407401 0.0505989
0 0.43299 0.657603
0 0.43032 0.848753
0 0.406592 1
0 0.451118 1
0.0883192 0.540459 0.859358
0.766995 0.562997 0.141711
1 0.569268 0.0478828
1 0.554253 0.0367742
1 0.529366 0.0209201
0 0.520836 0.760357
0 0.496788 1
0 0.436393 1
0 0.480995 1
0 0.606592 1
0.497963 0.61445 0.577508
1 0.646723 0
1 0.639094 0
1 0.625101 0
0 0.585519 0.869596
0 0.551324 1
0 0.459998 1
0 0.490028 1
0 0.657328 1
0 0.754314 1
0.763058 0.73669 0.08336
1 0.715145 0
1 0.708339 0
0 0.644648 0.973816
0 0.598108 1
0 0.48368 1
0 0.483101 1
0 0.701488 1
0 0.869795 1
0 0.862425 1
1 0.806821 0
1 0.801495 0
0 0.0662242 0.292378
0 0.0482185 0.388098
0.150713 0 0.532021
0.33254 0 0.472847
0.709712 0 0.628763
0.688273 0 0.46981
0.691981 0 0.406958
0.749493 0 0.390753
0.822614 0 0.386801
0 0.120607 0.416968
0 0.122438 0.480003
0 0.0641489 0.61117
0.28455 0.0574044 0.427832
0.688121 0 0.613626
0.650538 0.0255436 0.437446
0.708171 0.0255894 0.400534
0.787213 0.014374 0.384314
0.864118 0.00440986 0.374319
0 0.199741 0.583703
0 0.21677 0.613138
0 0.214862 0.661692
0.253864 0.171206 0.573632
0.615869 0.15877 0.548562
0.658946 0.194034 0.433616
0.776425 0.169406 0.401938
0.874952 0.13724 0.372824
0.968704 0.106981 0.34432
0 0.272877 0.701762
0 0.302495 0.705074
0 0.32546 0.690639
0.0614633 0.329473 0.629847
0.505379 0.354742 0.464714
0.723537 0.355657 0.431281
0.878843 0.32134 0.384253
0.990875 0.280125 0.331655
1 0.23505 0.286687
0 0.349081 0.766827
0 0.391287 0.742077
0 0.422629 0.733104
0 0.42295 0.739055
0.413916 0.47068 0.532662
0.706127 0.495811 0.427619
0.891859 0.478111 0.358831
1 0.437385 0.295308
1 0.389548 0.238773
0 0.444282 0.792294
0 0.492531 0.790539
0 0.509789 0.849454
0 0.470878 0.980972
0.116579 0.515679 0.920073
0.622431 0.5691 0.488533
0.874083 0.59411 0.365606
1 0.576181 0.306477
1 0.541634 0.252277
0 0.564263 0.847196
0 0.611032 0.878492
0 0.599222 1
0 0.507439 1
0 0.536278 1
0.229191 0.631159 0.953597
0.834699 0.663035 0.353719
1 0.671321 0.247929
1 0.657725 0.224567
0 0.686229 0.924224
0 0.715465 0.958923
0 0.681788 1
0 0.540322 1
0 0.545464 1
0 0.674098 1
0.503594 0.731411 0.732647
1 0.74789 0.139635
1 0.746975 0.0870985
0 0.765835 0.972992
0 0.785733 1
0 0.746273 1
0 0.573236 1
0 0.55523 1
0 0.723949 1
0 0.843503 1
0.866926 0.840513 0.208682
1 0.838148 0
0 0.079881 0.35639
0 0.064744 0.422751
0.086717 0 0.597391
0.29749 0 0.519997
0.711391 0 0.782864
0.896254 0 0.73724
0.856703 0 0.602564
0.831907 0 0.534325
0.84889 0 0.499016
0 0.14435 0.480568
0 0.140566 0.533043
0 0.0876173 0.67985
0.275685 0.0224765 0.662364
0.605951 0 0.724468
0.870298 0 0.728206
0.814832 0 0.573571
0.812741 0.00503548 0.512779
0.854948 0.00122072 0.487404
0 0.225635 0.648341
0 0.235569 0.68304
0 0.241505 0.727428
0.0400092 0.184482 0.78706
0.420279 0.199756 0.537469
0.799802 0.132357 0.684276
0.761608 0.174228 0.538064
0.830457 0.151278 0.50724
0.906157 0.117556 0.482521
0 0.296086 0.784588
0 0.320729 0.808377
0 0.35169 0.815671
0 0.344579 0.802106
0.400031 0.329198 0.657359
0.691432 0.347143 0.609155
0.781994 0.34992 0.546197
0.904112 0.300252 0.508858
1 0.245823 0.469337
0 0.369757 0.894667
0 0.401282 0.883848
0 0.445518 0.8365
0 0.455817 0.772641
0.233463 0.488121 0.698955
0.620432 0.507683 0.580667
0.833631 0.489754 0.54847
0.988296 0.442191 0.495979
1 0.385016 0.436881
0 0.45658 0.940581
0 0.503273 0.905882
0 0.552987 0.859937
0 0.541665 0.817334
0.0776532 0.543633 0.844312
0.541482 0.595529 0.654047
0.809293 0.608484 0.550454
0.999939 0.581048 0.480934
1 0.536873 0.42092
0 0.573892 0.960647
0 0.629618 0.958312
0 0.674739 0.940078
0 0.619501 0.941375
0 0.566384 1
0.252003 0.629389 1
0.721813 0.678065 0.61117
0.968917 0.697459 0.496864
1 0.682445 0.439246
0 0.717205 1
0 0.773342 1
0 0.810056 1
0 0.708064 1
0 0.584161 1
0 0.640452 1
0.2925 0.741451 1
0.920058 0.773266 0.487083
1 0.784298 0.370962
0 0.856718 1
0 0.87895 1
0 0.918059 1
0 0.804791 1
0 0.607813 1
0 0.647913 1
0 0.796613 1
0.511055 0.871931 0.909651
1 0.876448 0.0592355
0 0.101366 0.404593
0 0.0888685 0.43949
0.0334936 0.00366217 0.63238
0.308888 0 0.679973
0.593179 0 0.767269
0.943786 0 0.897856
1 0 0.811124
0.983825 0 0.706447
0.945907 0 0.62945
0 0.160433 0.540383
0 0.15877 0.564324
0 0.12015 0.698985
0.194018 0.0234531 0.776852
0.419745 0.0349737 0.606729
0.884398 0 0.898528
0.989288 0 0.798077
0.941802 0 0.676402
0.916487 0 0.605142
0 0.241138 0.709682
0 0.253697 0.722972
0 0.262074 0.775006
0 0.20705 0.876066
0.381033 0.151537 0.769696
0.754833 0.116457 0.841337
0.937713 0.101305 0.778637
0.872755 0.135256 0.630793
0.901213 0.108812 0.58265
0 0.317113 0.842985
0 0.333211 0.879499
0 0.366476 0.893889
0 0.361913 0.908232
0.152575 0.322026 0.892409
0.550469 0.356451 0.645212
0.849851 0.311315 0.726589
0.859739 0.310536 0.624002
0.948745 0.253758 0.588876
0 0.390585 0.96846
0 0.415396 0.980133
0 0.451575 0.963363
0 0.469856 0.89366
0 0.471885 0.852491
0.542504 0.478401 0.725963
0.769345 0.492805 0.685939
0.892378 0.4636 0.643915
1 0.397971 0.6038
0 0.469749 1
0 0.504875 1
0 0.555169 0.958419
0 0.567971 0.875898
0 0.568627 0.834852
0.413214 0.621363 0.797299
0.733166 0.619547 0.69012
0.939727 0.589715 0.658228
1 0.539712 0.605463
0 0.582101 1
0 0.628443 1
0 0.680369 1
0 0.670069 0.921965
0 0.636545 0.931121
0.253742 0.661524 0.988876
0.664683 0.702937 0.769406
0.925505 0.707347 0.666896
1 0.684657 0.605325
0 0.724468 1
0 0.775296 1
0 0.817197 1
0 0.785245 1
0 0.69366 1
0.0981155 0.675685 1
0.327428 0.759304 1
0.817212 0.796506 0.757412
1 0.818647 0.613138
0 0.877302 1
0 0.932784 1
0 0.977234 1
0 0.925368 1
0 0.76318 1
0 0.679973 1
0 0.784543 1
0.303761 0.889143 1
1 0.919738 0.416571
0 0.112932 0.451896
0 0.100938 0.47689
0 0.0319829 0.659419
0.29781 0 0.811322
0.469261 0 0.6878
0.905943 0 0.978897
1 0 0.968338
1 0 0.881971
1 0 0.784985
0 0.178134 0.587015
0 0.174304 0.597589
0 0.141268 0.700572
0.100908 0.0382849 0.841123
0.392813 0.0180514 0.70898
0.76936 0 0.919234
1 0 0.973709
1 0 0.873182
1 0 0.751476
0 0.259709 0.748425
0 0.26331 0.761578
0 0.272847 0.796689
0 0.229755 0.903029
0.23682 0.140002 0.925612
0.516991 0.170016 0.695323
0.974487 0.0570687 0.969665
1 0.057084 0.847822
0.988907 0.0703899 0.714382
0 0.331441 0.896788
0 0.349142 0.919066
0 0.377142 0.960723
0 0.378683 0.976226
0 0.332525 1
0.498878 0.292149 0.865644
0.871519 0.256733 0.931746
0.987808 0.243763 0.817899
0.954452 0.242145 0.692943
0 0.404715 1
0 0.42768 1
0 0.46186 1
0 0.482002 1
0 0.467384 1
0.324025 0.446006 0.98146
0.701961 0.472038 0.788403
0.936355 0.427344 0.803784
0.970047 0.405417 0.718181
0 0.487739 1
0 0.511589 1
0 0.553399 1
0 0.575891 1
0 0.570321 0.961776
0.183658 0.583627 0.974243
0.669123 0.601953 0.788052
0.899458 0.583871 0.811063
1 0.55935 0.756848
0 0.581399 1
0 0.619867 1
0 0.668711 1
0 0.679744 1
0 0.667887 0.952956
0.113771 0.686183 0.981414
0.580896 0.729198 0.943053
0.886412 0.711238 0.848203
1 0.703944 0.801022
0 0.712886 1
0 0.760662 1
0 0.801175 1
0 0.79379 1
0 0.765423 1
0.0246433 0.755871 1
0.397223 0.798489 1
0.775387 0.832151 0.9337
1 0.839048 0.820188
0 0.856611 1
0 0.906905 1
0 0.943984 1
0 0.930053 1
0 0.87512 1
0 0.804517 1
0.213107 0.835615 1
0.420035 0.921614 1
1 0.960403 0.782589
0 0.12459 0.504005
0 0.111803 0.510338
0 0.0567636 0.667262
0.252995 0 0.904799
0.41619 0 0.707591
0.803967 0 0.982406
1 0 1
1 0 1
1 0 0.935592
0 0.188006 0.617594
0 0.182879 0.622034
0 0.157168 0.700572
0 0.0590829 0.891493
0.374548 0 0.88603
0.566354 0 0.783688
1 0 1
1 0 1
1 0 0.928573
0 0.266804 0.77496
0 0.271885 0.785122
0 0.279164 0.813077
0 0.251728 0.901076
0.05243 0.14728 1
0.487633 0.117311 0.859907
0.850111 0.0590677 1
1 0 1
1 0.00456245 0.914321
0 0.341405 0.930343
0 0.358068 0.954437
0 0.384161 0.995529
0 0.391775 1
0 0.346242 1
0.340551 0.254322 1
0.64303 0.289128 0.811048
1 0.168658 1
1 0.183795 0.88397
0 0.419593 1
0 0.438499 1
0 0.476661 1
0 0.499855 1
0 0.482322 1
0.0712596 0.429374 1
0.645365 0.422904 0.908568
1 0.356374 1
1 0.362356 0.905898
0 0.496895 1
0 0.52076 1
0 0.556954 1
0 0.586892 1
0 0.579797 1
0 0.564645 1
0.574563 0.546822 1
0.866117 0.565347 0.961654
1 0.523445 0.972992
0 0.57911 1
0 0.610803 1
0 0.658808 1
0 0.684306 1
0 0.676188 1
0 0.682826 1
0.403983 0.698512 1
0.805859 0.720287 0.942336
1 0.677516 1
0 0.682704 1
0 0.736767 1
0 0.782879 1
0 0.793256 1
0 0.780423 1
0 0.798138 1
0.295293 0.839811 1
0.753811 0.847074 1
0.975647 0.865385 1
0 0.827909 1
0 0.879194 1
0 0.918883 1
0 0.908095 1
0 0.903166 1
0 0.930343 1
0.198825 0.960449 1
0.594476 0.985443 1
0.946181 1 1
