graphics/apply_lut_to_images/moto_makusudi_ksouth.cube
TITLE "Generated by Resolve"
LUT_3D_SIZE 5
0 0.00230411 0.000686656
0.238849 0.00834669 0
0.506188 0 0
0.713085 0 0
0.90515 0 0
0 0.0425574 0.583322
0.305455 0.181231 0
0.720607 0.187427 0
0.880476 0.187915 0
1 0.176715 0
0 0.140917 1
0 0.50367 1
1 0.430655 0
1 0.411276 0
1 0.392996 0
0 0.221515 1
0 0.589715 1
0.417288 0.574441 0.272725
1 0.584848 0
1 0.546426 0
0 0.270954 1
0 0.543328 1
0 0.871458 1
1 0.737469 0
1 0.707973 0
0 0.0246738 0.16907
0.241382 0 0.27216
0.450156 0 0.145769
0.695888 0 0.103349
0.899092 0 0.0946212
0 0.145769 0.3299
0.149844 0.167529 0.246433
0.64004 0.194308 0.039292
0.86836 0.166217 0
1 0.12134 0
0 0.281971 0.626825
0 0.359884 1
0.696361 0.454994 0
1 0.447013 0
1 0.403784 0
0 0.346426 1
0 0.410193 1
0 0.707759 1
1 0.62327 0
1 0.592309 0
0 0.371756 1
0 0.409903 1
0 0.901228 1
0.66627 0.804959 0.0183261
1 0.7729 0
0 0.0662242 0.292378
0.150713 0 0.532021
0.709712 0 0.628763
0.691981 0 0.406958
0.822614 0 0.386801
0 0.199741 0.583703
0 0.214862 0.661692
0.615869 0.15877 0.548562
0.776425 0.169406 0.401938
0.968704 0.106981 0.34432
0 0.349081 0.766827
0 0.422629 0.733104
0.413916 0.47068 0.532662
0.891859 0.478111 0.358831
1 0.389548 0.238773
0 0.564263 0.847196
0 0.599222 1
0 0.536278 1
0.834699 0.663035 0.353719
1 0.657725 0.224567
0 0.765835 0.972992
0 0.746273 1
0 0.55523 1
0 0.843503 1
1 0.838148 0
0 0.101366 0.404593
0.0334936 0.00366217 0.63238
0.593179 0 0.767269
1 0 0.811124
0.945907 0 0.62945
0 0.241138 0.709682
0 0.262074 0.775006
0.381033 0.151537 0.769696
0.937713 0.101305 0.778637
0.901213 0.108812 0.58265
0 0.390585 0.96846
0 0.451575 0.963363
0 0.471885 0.852491
0.769345 0.492805 0.685939
1 0.397971 0.6038
0 0.582101 1
0 0.680369 1
0 0.636545 0.931121
0.664683 0.702937 0.769406
1 0.684657 0.605325
0 0.877302 1
0 0.977234 1
0 0.76318 1
0 0.784543 1
1 0.919738 0.416571
0 0.12459 0.504005
0 0.0567636 0.667262
0.41619 0 0.707591
1 0 1
1 0 0.935592
0 0.266804 0.77496
0 0.279164 0.813077
0.05243 0.14728 1
0.850111 0.0590677 1
1 0.00456245 0.914321
0 0.419593 1
0 0.476661 1
0 0.482322 1
0.645365 0.422904 0.908568
1 0.362356 0.905898
0 0.57911 1
0 0.658808 1
0 0.676188 1
0.403983 0.698512 1
1 0.677516 1
0 0.827909 1
0 0.918883 1
0 0.903166 1
0.198825 0.960449 1
0.946181 1 1
