graphics/apply_lut_to_images/moto_makusudi_ksouth.cube
TITLE "Generated by Resolve"
LUT_3D_SIZE 33
0 0.00230411 0.000686656
0 0.00230411 0.000686656
0.0227512 0.00202945 0
0.0495766 0.0093843 0
0.086183 0.0119478 0
0.128344 0.0109255 0
0.160891 0.0108797 0
0.200839 0.00962844 0
0.238849 0.00834669 0
0.26894 0.0104677 0
0.30631 0.00901808 0
0.338277 0.00747692 0
0.377111 0.00419623 0
0.412802 0.00120546 0
0.443793 0 0
0.476463 0 0
0.506188 0 0
0.536645 0 0
0.56318 0 0
0.589807 0 0
0.614862 0 0
0.64036 0 0
0.662593 0 0
0.688975 0 0
0.713085 0 0
0.739254 0 0
0.762783 0 0
0.783734 0 0
0.811994 0 0
0.834394 0 0
0.862928 0 0
0.884306 0 0
0.90515 0 0
0 0.00230411 0.000686656
0 0.00230411 0.000686656
0.0227512 0.00202945 0
0.0495766 0.0093843 0
0.0863355 0.0119478 0
0.128344 0.0109255 0
0.160891 0.0108797 0
0.200992 0.00961318 0
0.238849 0.00834669 0
0.26894 0.0104677 0
0.306432 0.00901808 0
0.338277 0.00747692 0
0.377111 0.00419623 0
0.412909 0.00120546 0
0.443793 0 0
0.476463 0 0
0.50631 0 0
0.536645 0 0
0.56318 0 0
0.589807 0 0
0.614862 0 0
0.64036 0 0
0.662593 0 0
0.688975 0 0
0.713085 0 0
0.739254 0 0
0.762783 0 0
0.783734 0 0
0.811994 0 0
0.834394 0 0
0.862928 0 0
0.884306 0 0
0.90515 0 0
0 0.0061799 0.0558175
0 0.0061799 0.0558175
0.0208438 0.0102998 0.020264
0.0477607 0.0169528 0.00862135
0.0842603 0.0204929 0
0.120134 0.0260014 0
0.160128 0.027512 0
0.195605 0.0290379 0
0.238376 0.0284886 0
0.275898 0.0310979 0
0.316518 0.0302129 0
0.351186 0.0285191 0
0.39147 0.0256809 0
0.427863 0.0227665 0
0.462837 0.0195926 0
0.497124 0.0167544 0
0.527428 0.0140688 0
0.558602 0.0111086 0
0.58674 0.00872816 0
0.614099 0.00706493 0
0.636515 0.00628672 0
0.661372 0.0056611 0
0.685054 0.00454719 0
0.711315 0.00234989 0
0.735103 0.000427253 0
0.757504 0 0
0.783261 0 0
0.80502 0 0
0.832715 0 0
0.854627 0 0
0.876646 0 0
0.903044 0 0
0.922499 0 0
0 0.0116884 0.122789
0 0.0116884 0.122789
0.00799573 0.0162356 0.0850843
0.0464179 0.0237583 0.0438697
0.0754864 0.0355383 0.0203403
0.114534 0.0417945 0
0.156878 0.0491493 0
0.202518 0.0512551 0
0.249348 0.0522164 0
0.293141 0.0529488 0
0.330541 0.0560616 0
0.37026 0.0553445 0
0.411353 0.0529183 0
0.448692 0.0504921 0
0.482918 0.0482643 0
0.518135 0.0453651 0
0.548028 0.0437629 0
0.577249 0.0430457 0
0.60412 0.0421607 0
0.632303 0.040238 0
0.657816 0.0381933 0
0.68455 0.0358434 0
0.707881 0.0340581 0
0.734401 0.0318456 0
0.758251 0.0299535 0
0.780835 0.0283818 0
0.805814 0.0264744 0
0.82707 0.0251316 0
0.854063 0.0225223 0
0.87602 0.0209201 0
0.896178 0.0196384 0
0.923995 0.0172732 0
0.942473 0.0170901 0
0 0.0189517 0.195865
0 0.0189517 0.195865
0 0.0238041 0.165682
0.0218204 0.0370184 0.111299
0.0654154 0.0509194 0.0466773
0.108003 0.0600137 0.0182193
0.15697 0.0658732 0
0.210208 0.0733806 0
0.262043 0.0756085 0
0.312215 0.0783398 0
0.35697 0.0808576 0
0.399573 0.080293 0
0.438605 0.0791943 0
0.472053 0.0779583 0
0.508247 0.0760662 0
0.541558 0.074052 0
0.570321 0.0730602 0
0.598352 0.0731365 0
0.624186 0.0728923 0
0.651438 0.0711376 0
0.674937 0.0693523 0
0.701488 0.0670939 0
0.725795 0.0650797 0
0.752026 0.0629282 0
0.775677 0.0611429 0
0.796384 0.0596933 0
0.822187 0.0577096 0
0.844129 0.0560006 0
0.870375 0.0538949 0
0.892378 0.0518349 0
0.912123 0.0503548 0
0.939971 0.047776 0
0.957443 0.0480049 0
0 0.0209049 0.290257
0 0.0209049 0.290257
0 0.0345464 0.254673
0 0.0523384 0.202258
0.0357671 0.0666514 0.119646
0.101595 0.0796674 0.0337987
0.15523 0.0867628 0.00292973
0.219211 0.0961471 0
0.282094 0.0986954 0
0.338537 0.101183 0
0.389914 0.105486 0
0.434531 0.105272 0
0.474235 0.104601 0
0.507729 0.103792 0
0.542123 0.102495 0
0.573449 0.101442 0
0.600443 0.101289 0
0.627115 0.1019 0
0.651423 0.102037 0
0.676951 0.100587 0
0.701473 0.0989242 0
0.725444 0.0972763 0
0.745464 0.0962081 0
0.770642 0.0942245 0
0.792935 0.0927596 0
0.813504 0.0913558 0
0.838087 0.0895705 0
0.857099 0.0895552 0
0.874922 0.090074 0
0.898894 0.0890669 0
0.917662 0.0882124 0
0.944976 0.0852064 0
0.965225 0.083238 0
0 0.0248264 0.389029
0 0.0248264 0.389029
0 0.0437629 0.357595
0 0.0721752 0.303944
0 0.093431 0.216129
0.0755322 0.0982376 0.0960403
0.150561 0.110445 0.000762951
0.226581 0.119341 0
0.295384 0.123522 0
0.361028 0.126131 0
0.424414 0.130724 0
0.472541 0.130892 0
0.513054 0.130465 0
0.54583 0.130724 0
0.579828 0.132296 0
0.609873 0.132738 0
0.636027 0.132113 0
0.662287 0.131289 0
0.686259 0.130297 0
0.710063 0.129046 0
0.731655 0.128008 0
0.753796 0.127001 0
0.772885 0.126238 0
0.795377 0.124971 0
0.815824 0.123919 0
0.832609 0.123735 0
0.854994 0.123583 0
0.873045 0.123827 0
0.891737 0.123903 0
0.914168 0.122087 0
0.932815 0.120287 0
0.951507 0.118364 0
0.977707 0.115373 0
0 0.0328374 0.48481
0 0.0328374 0.48481
0 0.0595712 0.461997
0 0.0866712 0.436942
0 0.11191 0.357092
0 0.133425 0.207294
0.111772 0.135683 0.0792401
0.222766 0.142885 0
0.305516 0.150607 0
0.386892 0.155688 0
0.452461 0.157794 0
0.507607 0.157961 0
0.549889 0.158099 0
0.587747 0.159365 0
0.622034 0.160861 0
0.651759 0.160235 0
0.677195 0.159564 0
0.702602 0.158724 0
0.725658 0.158099 0
0.748196 0.157366 0
0.769604 0.156527 0
0.790021 0.155703 0
0.80679 0.155337 0
0.82771 0.154467 0
0.845396 0.155337 0
0.861295 0.156344 0
0.880903 0.156756 0
0.898039 0.156069 0
0.914122 0.155001 0
0.936919 0.152911 0
0.95407 0.151492 0
0.971191 0.149584 0
0.995529 0.1467 0
0 0.0425574 0.583322
0 0.0425574 0.583322
0 0.0706951 0.58584
0 0.110613 0.556725
0 0.142733 0.481163
0 0.166751 0.353384
0.057145 0.16733 0.148394
0.178531 0.180621 0
0.305455 0.181231 0
0.404044 0.185534 0
0.484688 0.185977 0
0.547585 0.186099 0
0.593973 0.186847 0
0.632486 0.189334 0
0.666468 0.188586 0
0.69572 0.187991 0
0.720607 0.187427 0
0.745296 0.186725 0
0.767514 0.18616 0
0.789075 0.18616 0
0.808942 0.187259 0
0.828199 0.188602 0
0.844038 0.188968 0
0.863249 0.188403 0
0.880476 0.187915 0
0.895201 0.187671 0
0.914824 0.186755 0
0.930907 0.185702 0
0.946365 0.184604 0
0.966583 0.182849 0
0.982269 0.18114 0
0.997299 0.179538 0
1 0.176715 0
0 0.0484321 0.693111
0 0.0484321 0.693111
0 0.083772 0.701518
0 0.133959 0.691264
0 0.173465 0.632868
0 0.201709 0.517571
0 0.21912 0.299901
0.136568 0.197864 0.123445
0.272602 0.217868 0
0.405219 0.218555 0
0.504173 0.2168 0
0.584283 0.218738 0
0.640894 0.219059 0
0.678904 0.21796 0
0.71223 0.21709 0
0.740749 0.216495 0
0.765682 0.216022 0
0.789639 0.216037 0
0.811276 0.217182 0
0.832074 0.217899 0
0.851804 0.217914 0
0.870756 0.217517 0
0.88629 0.217472 0
0.90518 0.216953 0
0.921599 0.216541 0
0.936172 0.216266 0
0.954147 0.215412 0
0.968719 0.21471 0
0.981918 0.213794 0
1 0.211841 0
1 0.210269 0
1 0.208652 0
1 0.205814 0
0 0.0645762 0.799222
0 0.0645762 0.799222
0 0.105531 0.813565
0 0.154055 0.818555
0 0.197955 0.792981
0 0.233402 0.687953
0 0.252659 0.488502
0.0470741 0.238666 0.203586
0.194812 0.254139 0
0.381704 0.256535 0
0.513588 0.250416 0
0.612314 0.25214 0
0.681041 0.249485 0
0.725414 0.247639 0
0.759213 0.246555 0
0.787411 0.246601 0
0.813169 0.247623 0
0.836347 0.248051 0
0.856931 0.247745 0
0.877165 0.247089 0
0.895293 0.246601 0
0.913542 0.246052 0
0.929519 0.245838 0
0.947997 0.245289 0
0.964294 0.245121 0
0.977798 0.245106 0
0.995422 0.244251 0
1 0.243595 0
1 0.242756 0
1 0.240955 0
1 0.239399 0
1 0.237507 0
1 0.234943 0
0 0.0736706 0.900038
0 0.0736706 0.900038
0 0.120226 0.932296
0 0.179736 0.950072
0 0.229984 0.924392
0 0.26807 0.852659
0 0.294408 0.675517
0 0.30219 0.382193
0.131029 0.280125 0.129534
0.316655 0.297078 0
0.502739 0.286198 0
0.624659 0.285496 0
0.709163 0.281605 0
0.76788 0.279637 0
0.805188 0.27866 0
0.835019 0.279255 0
0.861204 0.278141 0
0.88336 0.27715 0
0.903471 0.276371 0
0.922667 0.275654 0
0.940017 0.275151 0
0.958099 0.274556 0
0.973846 0.274418 0
0.991745 0.274083 0
1 0.274647 0
1 0.275563 0
1 0.275654 0
1 0.275517 0
1 0.274708 0
1 0.272938 0
1 0.271183 0
1 0.269123 0
1 0.266178 0
0 0.0870069 0.995422
0 0.0870069 0.995422
0 0.138125 1
0 0.201007 1
0 0.25716 1
0 0.303365 1
0 0.332708 0.862715
0 0.349142 0.598871
0.0912795 0.302266 0.246509
0.230579 0.324544 0
0.453712 0.326665 0
0.618189 0.320058 0
0.726894 0.315847 0
0.806836 0.315602 0
0.850874 0.31165 0
0.881834 0.309102 0
0.906722 0.307515 0
0.928298 0.306233 0
0.949325 0.304967 0
0.967971 0.304204 0
0.98468 0.303883 0
1 0.303655 0
1 0.304189 0
1 0.304753 0
1 0.305226 0
1 0.305165 0
1 0.304295 0
1 0.303227 0
1 0.302068 0
1 0.300175 0
1 0.298116 0
1 0.296162 0
1 0.293919 0
0 0.10132 1
0 0.10132 1
0 0.153613 1
0 0.222889 1
0 0.283864 1
0 0.329458 1
0 0.369696 1
0 0.388098 0.817929
0 0.385153 0.438666
0.148867 0.35314 0.14432
0.360586 0.369116 0
0.579751 0.358831 0
0.725017 0.349844 0
0.82472 0.348501 0
0.889265 0.343008 0
0.924437 0.339223 0
0.950652 0.337316 0
0.974762 0.335912 0
0.994766 0.334676 0
1 0.333867 0
1 0.333822 0
1 0.333898 0
1 0.33402 0
1 0.333898 0
1 0.332998 0
1 0.33225 0
1 0.33135 0
1 0.330022 0
1 0.328557 0
1 0.326955 0
1 0.324407 0
1 0.322225 0
1 0.319921 0
0 0.114427 1
0 0.114427 1
0 0.171572 1
0 0.239338 1
0 0.306981 1
0 0.359335 1
0 0.397406 1
0 0.420859 1
0 0.429435 0.711315
0.107668 0.367315 0.294148
0.267979 0.381277 0.0452735
0.498146 0.399268 0
0.691875 0.386816 0
0.822828 0.382361 0
0.911055 0.37557 0
0.961089 0.370687 0
0.993591 0.368353 0
1 0.368017 0
1 0.366659 0
1 0.364813 0
1 0.363531 0
1 0.362676 0
1 0.361608 0
1 0.360662 0
1 0.359686 0
1 0.358709 0
1 0.357733 0
1 0.356268 0
1 0.354498 0
1 0.352667 0
1 0.35021 0
1 0.347662 0
1 0.344961 0
0 0.131472 1
0 0.131472 1
0 0.182727 1
0 0.255222 1
0 0.321538 1
0 0.385275 1
0 0.428321 1
0 0.453346 1
0 0.468223 0.97084
0 0.459556 0.534569
0.148287 0.419211 0.182406
0.374014 0.437537 0
0.622675 0.425223 0
0.794369 0.416251 0
0.910704 0.408026 0
0.986023 0.402884 0
1 0.399558 0
1 0.397238 0
1 0.394491 0
1 0.392523 0
1 0.390906 0
1 0.389548 0
1 0.38822 0
1 0.386984 0
1 0.386038 0
1 0.384726 0
1 0.383307 0
1 0.381872 0
1 0.379812 0
1 0.377554 0
1 0.37525 0
1 0.372488 0
1 0.36939 0
0 0.140917 1
0 0.140917 1
0 0.194324 1
0 0.2645 1
0 0.333257 1
0 0.401801 1
0 0.450614 1
0 0.482383 1
0 0.50367 1
0 0.506127 0.837476
0.0468299 0.442542 0.360845
0.303365 0.423194 0.175921
0.506462 0.463447 0
0.732174 0.451896 0
0.884153 0.440909 0
0.988113 0.43476 0
1 0.430655 0
1 0.425925 0
1 0.422232 0
1 0.419699 0
1 0.417655 0
1 0.415885 0
1 0.414359 0
1 0.412802 0
1 0.411276 0
1 0.409949 0
1 0.408225 0
1 0.406302 0
1 0.404303 0
1 0.401694 0
1 0.398978 0
1 0.396185 0
1 0.392996 0
0 0.152575 1
0 0.152575 1
0 0.207034 1
0 0.27602 1
0 0.345846 1
0 0.411002 1
0 0.472953 1
0 0.509331 1
0 0.529732 1
0 0.539101 1
0 0.527779 0.670756
0.216968 0.443976 0.301762
0.355581 0.489174 0
0.624643 0.487511 0
0.826444 0.474693 0
0.965545 0.464225 0
1 0.458152 0
1 0.454337 0
1 0.449897 0
1 0.446342 0
1 0.443824 0
1 0.441642 0
1 0.439719 0
1 0.437873 0
1 0.436011 0
1 0.434165 0
1 0.432395 0
1 0.430121 0
1 0.427573 0
1 0.425086 0
1 0.42208 0
1 0.41886 0
1 0.415778 0
0 0.165805 1
0 0.165805 1
0 0.216434 1
0 0.287266 1
0 0.351492 1
0 0.420249 1
0 0.483436 1
0 0.526757 1
0 0.555337 1
0 0.56994 1
0 0.57055 1
0 0.528725 0.481041
0.292714 0.470344 0.241703
0.473991 0.519173 0
0.733349 0.506584 0
0.91371 0.494881 0
1 0.485847 0
1 0.481422 0
1 0.477836 0
1 0.472847 0
1 0.469276 0
1 0.466789 0
1 0.464393 0
1 0.462226 0
1 0.460151 0
1 0.457832 0
1 0.455467 0
1 0.453162 0
1 0.450355 0
1 0.447364 0
1 0.444358 0
1 0.440864 0
1 0.437415 0
0 0.172763 1
0 0.172763 1
0 0.226184 1
0 0.292622 1
0 0.357168 1
0 0.425071 1
0 0.485481 1
0 0.542901 1
0 0.577462 1
0 0.595392 1
0 0.600015 1
0 0.589746 0.865782
0.198917 0.485451 0.387991
0.354406 0.503899 0.123156
0.593362 0.537652 0
0.825864 0.525628 0
0.99324 0.515221 0
1 0.508064 0
1 0.503243 0
1 0.498436 0
1 0.494697 0
1 0.491417 0
1 0.48867 0
1 0.486107 0
1 0.483558 0
1 0.48098 0
1 0.478187 0
1 0.475563 0
1 0.47248 0
1 0.469184 0
1 0.465873 0
1 0.462089 0
1 0.457542 0
0 0.183368 1
0 0.183368 1
0 0.234119 1
0 0.295857 1
0 0.363088 1
0 0.426139 1
0 0.485481 1
0 0.550301 1
0 0.592584 1
0 0.615549 1
0 0.624094 1
0 0.622309 1
0 0.599023 0.688029
0.198489 0.533455 0.283909
0.417182 0.559182 0
0.702327 0.555581 0
0.920043 0.542565 0
1 0.534234 0
1 0.527504 0
1 0.522133 0
1 0.517327 0
1 0.513603 0
1 0.51136 0
1 0.509087 0
1 0.506279 0
1 0.503258 0
1 0.500404 0
1 0.497337 0
1 0.493355 0
1 0.488853 0
1 0.484352 0
1 0.48014 0
1 0.475547 0
0 0.195132 1
0 0.195132 1
0 0.240116 1
0 0.298238 1
0 0.364996 1
0 0.42562 1
0 0.483787 1
0 0.549111 1
0 0.600916 1
0 0.630716 1
0 0.64538 1
0 0.649226 1
0 0.640116 1
0 0.581735 0.509133
0.357046 0.522393 0.286
0.539925 0.583078 0
0.812161 0.570428 0
1 0.559304 0
1 0.551904 0
1 0.546792 0
1 0.540169 0
1 0.535073 0
1 0.531655 0
1 0.528695 0
1 0.525551 0
1 0.52253 0
1 0.519097 0
1 0.515648 0
1 0.511467 0
1 0.506798 0
1 0.502281 0
1 0.497826 0
1 0.49398 0
0 0.202426 1
0 0.202426 1
0 0.244297 1
0 0.300221 1
0 0.364508 1
0 0.423239 1
0 0.480262 1
0 0.544732 1
0 0.600351 1
0 0.642267 1
0 0.663432 1
0 0.671153 1
0 0.668528 1
0 0.652354 0.916503
0.259754 0.534096 0.424552
0.396597 0.568505 0.069276
0.664836 0.597818 0
0.915343 0.583322 0
1 0.57438 0
1 0.568032 0
1 0.563668 0
1 0.558785 0
1 0.553292 0
1 0.548714 0
1 0.545281 0
1 0.54165 0
1 0.538018 0
1 0.534005 0
1 0.529976 0
1 0.526146 0
1 0.521782 0
1 0.517342 0
1 0.512993 0
0 0.210529 1
0 0.210529 1
0 0.250599 1
0 0.304463 1
0 0.363165 1
0 0.419715 1
0 0.475807 1
0 0.537697 1
0 0.595346 1
0 0.646113 1
0 0.677104 1
0 0.689677 1
0 0.6925 1
0 0.686519 1
0 0.654704 0.701732
0.226246 0.596368 0.259464
0.492241 0.617456 0
0.795346 0.609232 0
1 0.597421 0
1 0.590173 0
1 0.584329 0
1 0.580636 0
1 0.576364 0
1 0.571328 0
1 0.566995 0
1 0.562905 0
1 0.558679 0
1 0.554452 0
1 0.550469 0
1 0.54583 0
1 0.541222 0
1 0.535424 0
1 0.529107 0
0 0.221515 1
0 0.221515 1
0 0.259205 1
0 0.309285 1
0 0.361913 1
0 0.416083 1
0 0.471336 1
0 0.528344 1
0 0.589715 1
0 0.643091 1
0 0.68687 1
0 0.705852 1
0 0.712581 1
0 0.712047 1
0 0.700465 1
0.110536 0.602747 0.495979
0.417288 0.574441 0.272725
0.644953 0.633066 0
0.915953 0.621027 0
1 0.61268 0
1 0.606043 0
1 0.601099 0
1 0.59588 0
1 0.589929 0
1 0.584848 0
1 0.581308 0
1 0.576684 0
1 0.572122 0
1 0.566873 0
1 0.562051 0
1 0.557504 0
1 0.551736 0
1 0.546426 0
0 0.228412 1
0 0.228412 1
0 0.263966 1
0 0.310704 1
0 0.359899 1
0 0.411734 1
0 0.465522 1
0 0.520638 1
0 0.581445 1
0 0.637446 1
0 0.687648 1
0 0.720226 1
0 0.730449 1
0 0.734493 1
0 0.730999 1
0 0.70013 0.865522
0.295033 0.594476 0.39942
0.47837 0.643931 0
0.791196 0.644968 0
1 0.634241 0
1 0.624735 0
1 0.62002 0
1 0.616556 0
1 0.610666 0
1 0.604654 0
1 0.599893 0
1 0.59527 0
1 0.590692 0
1 0.585153 0
1 0.580331 0
1 0.574838 0
1 0.570016 0
1 0.566522 0
0 0.233997 1
0 0.233997 1
0 0.26772 1
0 0.311955 1
0 0.358602 1
0 0.408057 1
0 0.460395 1
0 0.51519 1
0 0.57229 1
0 0.631128 1
0 0.684596 1
0 0.728557 1
0 0.746685 1
0 0.754467 1
0 0.756344 1
0 0.738369 1
0 0.665156 0.585336
0.431128 0.598627 0.333303
0.641367 0.66598 0
0.931105 0.653956 0
1 0.644907 0
1 0.639582 0
1 0.634241 0
1 0.631449 0
1 0.626703 0
1 0.620813 0
1 0.615961 0
1 0.61059 0
1 0.605417 0
1 0.600046 0
1 0.594476 0
1 0.588571 0
1 0.58381 0
0 0.239124 1
0 0.239124 1
0 0.270634 1
0 0.312474 1
0 0.357336 1
0 0.404837 1
0 0.455467 1
0 0.510048 1
0 0.564614 1
