graphics/lut/pop_it.cube
TITLE "Generated by Resolve"
LUT_3D_SIZE 9
0 0 0
0.0847944 0 0
0.234409 0 0
0.383734 0 0
0.531609 0 0
0.681529 0 0
0.832731 0 0
0.984787 0 0
1 0 0
0 0.0637217 0
0.0527352 0.0527352 0
0.213474 0.043946 0
0.368566 0.037995 0
0.522118 0.0332952 0
0.675395 0.0291905 0
0.828824 0.0254368 0
0.982528 0.0218967 0
1 0.0184939 0
0 0.20087 0
0.0285649 0.196674 0
0.190173 0.190173 0
0.351858 0.183612 0
0.510262 0.178347 0
0.666865 0.173953 0
0.82269 0.170092 0
0.978225 0.166567 0
1 0.163226 0
0 0.34432 0
0.0150759 0.342061 0
0.170642 0.338521 0
0.33286 0.33286 0
0.494285 0.327413 0
0.653864 0.322667 0
0.812085 0.318517 0
0.969528 0.314824 0
1 0.311391 0
0 0.49012 0
0.00531014 0.488899 0
0.156359 0.487297 0
0.31635 0.48304 0
0.478157 0.478157 0
0.639399 0.473411 0
0.799558 0.469093 0
0.958755 0.465202 0
1 0.461616 0
0 0.637552 0
0 0.637003 0
0.145373 0.636652 0
0.302968 0.6336 0
0.463691 0.629572 0
0.625223 0.625223 0
0.786419 0.620981 0
0.946944 0.617029 0
1 0.613336 0
0 0.786191 0
0 0.78613 0
0.136324 0.786633 0
0.291966 0.784527 0
0.45124 0.781323 0
0.612207 0.777569 0
0.773632 0.773632 0
0.934874 0.769772 0
1 0.766094 0
0 0.935836 0
0 0.936141 0
0.128527 0.937285 0
0.282658 0.935897 0
0.440558 0.93341 0
0.60061 0.930266 0
0.761715 0.926757 0
0.923156 0.923156 0
1 0.919585 0
0 1 0
0 1 0
0.121599 1 0
0.274586 1 0
0.431312 1 0
0.590402 1 0
0.750912 1 0
0.912139 1 0
1 1 0
0 0 0.0899825
0.082063 0 0.082063
0.2365 0 0.0655985
0.385992 0 0.0538796
0.533989 0 0.0436255
0.684153 0 0.0364385
0.83537 0 0.030518
0.987411 0 0.0253605
1 0 0.020676
0 0.0596017 0.0596017
0.0495155 0.0495155 0.0495155
0.221164 0.0392462 0.0392462
0.374334 0.0346685 0.0346685
0.526848 0.0307469 0.0307469
0.67953 0.0271763 0.0271763
0.832547 0.0237888 0.0237888
0.985977 0.0205386 0.0205386
1 0.01738 0.01738
0 0.200458 0.0319066
0.0186618 0.198047 0.0186618
0.189517 0.189517 0.0116579
0.356909 0.181247 0.0154574
0.515663 0.176028 0.0170443
0.671855 0.171954 0.0169375
0.827222 0.168399 0.016083
0.982391 0.165133 0.014786
1 0.162036 0.0131991
0 0.344656 0.0168765
0.00810254 0.343175 0.00810254
0.16463 0.339818 0.000534066
0.332647 0.332647 0
0.497475 0.326177 0.00170901
0.658106 0.321157 0.00402838
0.81648 0.317037 0.00529488
0.973785 0.313466 0.00572213
1 0.310201 0.00555428
0 0.4907 0.00665293
0 0.489982 0
0.150317 0.488777 0
0.312947 0.484016 0
0.478172 0.478172 0
0.641703 0.47277 0
0.80293 0.468147 0
0.962539 0.464164 0
1 0.460624 0
0 0.63827 0
0 0.638056 0
0.140047 0.638056 0
0.298634 0.634928 0
0.46157 0.630365 0
0.625406 0.625406 0
0.788251 0.620691 0
0.949706 0.616449 0
1 0.612634 0
0 0.786999 0
0 0.787182 0
0.131701 0.787991 0
0.287633 0.785946 0
0.448142 0.782498 0
0.610849 0.778302 0
0.773922 0.773922 0
0.936416 0.769711 0
1 0.765789 0
0 0.936706 0
0 0.937194 0
0.124483 0.938582 0
0.278614 0.937316 0
0.437171 0.934752 0
0.598383 0.93135 0
0.760861 0.927489 0
0.923537 0.923537 0
1 0.919692 0
0 1 0
0 1 0
0.118044 1 0
0.270878 1 0
0.427924 1 0
0.587762 1 0
0.749294 1 0
0.91162 1 0
1 1 0
0 0 0.242679
0.0707256 0 0.241901
0.229755 0 0.229755
0.382681 0 0.213611
0.533501 0 0.200443
0.684779 0 0.19057
0.836545 0 0.182605
0.988891 0 0.175845
1 0 0.169894
0 0.053666 0.22385
0.0459144 0.0459144 0.228336
0.217609 0.0359655 0.217609
0.37615 0.0313268 0.199908
0.529458 0.0280156 0.189105
0.682231 0.024918 0.181582
0.835218 0.0218967 0.175647
0.988586 0.0189364 0.170581
1 0.016022 0.166033
0 0.197116 0.197116
0.0163119 0.195026 0.195026
0.186831 0.186831 0.186831
0.365332 0.176745 0.176745
0.521904 0.172808 0.172808
0.676936 0.169482 0.169482
0.831617 0.166415 0.166415
0.986343 0.1635 0.1635
1 0.160662 0.160662
0 0.343343 0.17525
0.0031281 0.342931 0.16762
0.15407 0.341924 0.15407
0.332494 0.332494 0.144976
0.503029 0.324178 0.149508
0.663935 0.319127 0.151827
0.82182 0.315282 0.152316
0.978622 0.311986 0.151873
1 0.308965 0.150896
0 0.490486 0.159274
0 0.490532 0.151904
0.142931 0.490562 0.142931
0.307332 0.485878 0.133211
0.478492 0.478492 0.131533
0.645411 0.472007 0.134463
0.807675 0.467063 0.137179
0.967376 0.463081 0.138811
1 0.459632 0.139559
0 0.638636 0.147051
0 0.638956 0.140749
0.134432 0.639735 0.134432
0.292988 0.637003 0.126528
0.458671 0.631907 0.121813
0.625986 0.625986 0.121691
0.791104 0.620569 0.123812
0.953613 0.615991 0.126162
1 0.61207 0.127962
0 0.787717 0.137072
0 0.788281 0.131807
0.12723 0.789624 0.12723
0.282734 0.787961 0.120806
0.444343 0.784451 0.115618
0.609308 0.779736 0.113283
0.774701 0.774701 0.113603
0.938827 0.770001 0.115297
1 0.765774 0.117235
0 0.937652 0.128557
0 0.93843 0.124147
0.12079 0.94023 0.12079
0.274434 0.939284 0.115541
0.433371 0.936797 0.110628
0.595895 0.933165 0.107347
0.760128 0.928878 0.106157
0.924453 0.924453 0.10663
1 0.920241 0.108019
0 1 0.12105
0 1 0.117357
0.114946 1 0.114946
0.267308 1 0.110582
0.42443 1 0.106157
0.58497 1 0.102617
0.747692 1 0.100511
0.911406 1 0.0999161
1 1 0.10045
0 0 0.395789
0.0637369 0 0.396445
0.220249 0 0.38941
0.375357 0 0.375357
0.529549 0 0.36202
0.682795 0 0.350591
0.835737 0 0.340963
0.988785 0 0.332753
1 0 0.325567
0 0.0497749 0.381399
0.0441444 0.0441444 0.384695
0.205661 0.0366827 0.382025
0.36936 0.0301823 0.36936
0.527184 0.0259861 0.355337
0.681926 0.0227665 0.344182
0.835813 0.0198672 0.335454
0.989609 0.0170748 0.328298
1 0.014313 0.322179
0 0.192996 0.361517
0.0226749 0.18999 0.365911
0.183368 0.183368 0.372137
0.361868 0.173388 0.361868
0.523827 0.169268 0.34461
0.679576 0.166506 0.334295
0.834302 0.163897 0.32726
0.988937 0.161318 0.321767
1 0.158755 0.317128
0 0.340276 0.340276
0.00494392 0.339467 0.339467
0.150942 0.338689 0.338689
0.329351 0.329351 0.329351
0.511208 0.319203 0.319203
0.669886 0.315465 0.315465
0.826596 0.312398 0.312398
0.982696 0.309575 0.309575
1 0.306905 0.306905
0 0.488579 0.321736
0 0.488838 0.317647
0.137057 0.489967 0.31133
0.295979 0.487511 0.295979
0.477791 0.477791 0.286458
0.650507 0.469444 0.291218
0.813016 0.464485 0.293782
0.972229 0.460761 0.294484
1 0.457618 0.29424
0 0.637537 0.306661
0 0.638209 0.301717
0.129122 0.639826 0.295689
0.284825 0.63827 0.284825
0.452384 0.633234 0.274495
0.625727 0.625727 0.272709
0.794263 0.619211 0.275792
0.957794 0.614298 0.278691
1 0.610376 0.280491
0 0.787167 0.294316
0 0.788052 0.289525
0.122621 0.790005 0.284657
0.276371 0.78909 0.276371
0.437995 0.785946 0.267796
0.605768 0.780682 0.262776
0.774685 0.774685 0.262623
0.941085 0.769268 0.264866
1 0.764706 0.267353
0 0.937469 0.283909
0 0.938521 0.279576
0.116793 0.940764 0.275792
0.269215 0.940352 0.269215
0.427771 0.938231 0.262104
0.591424 0.934508 0.256535
0.757961 0.929686 0.254032
0.92462 0.92462 0.254353
1 0.919905 0.256123
0 1 0.274922
0 1 0.271107
0.111437 1 0.268238
0.262882 1 0.262882
0.419562 1 0.256886
0.580499 1 0.25156
0.744549 1 0.248035
0.910033 1 0.246738
1 1 0.247227
0 0 0.549294
0.0589761 0 0.55024
0.2121 0 0.545403
0.367147 0 0.534722
0.523308 0 0.523308
0.678553 0 0.512001
0.833021 0 0.501656
0.987137 0 0.492439
1 0 0.48426
0 0.0469215 0.537102
0.0425574 0.0425574 0.539849
0.198489 0.0367895 0.539132
0.36022 0.0304417 0.532128
0.520745 0.0253147 0.520745
0.678294 0.0214389 0.508873
0.833982 0.018265 0.498421
0.988846 0.0154116 0.489525
1 0.012665 0.481895
0 0.189593 0.522026
0.026276 0.186816 0.526925
0.181964 0.181964 0.531441
0.349874 0.174411 0.529168
0.517143 0.168246 0.517143
0.67747 0.164508 0.503655
0.83418 0.16173 0.492958
0.989685 0.159243 0.484657
1 0.156817 0.477913
0 0.336904 0.503975
0.00976577 0.335546 0.507027
0.15845 0.33341 0.512428
0.325887 0.325887 0.517998
0.507744 0.315816 0.507744
0.671839 0.311864 0.490501
0.829267 0.309346 0.480339
0.985382 0.306966 0.473503
1 0.304631 0.468223
0 0.485863 0.485863
0 0.485771 0.485771
0.138979 0.486397 0.486397
0.292729 0.484199 0.484199
0.474525 0.474525 0.474525
0.658701 0.464332 0.464332
0.818952 0.4607 0.4607
0.976959 0.45774 0.45774
1 0.455085 0.455085
0 0.635554 0.469551
0 0.63621 0.467308
0.127474 0.638056 0.464714
0.278691 0.637583 0.456687
0.440757 0.634775 0.440757
0.624887 0.624887 0.431006
0.799268 0.61651 0.435889
0.963058 0.611566 0.43859
1 0.607919 0.439414
0 0.785794 0.455497
0 0.786831 0.452293
0.11986 0.789166 0.44892
0.270771 0.789075 0.441047
0.429572 0.787091 0.429572
0.599268 0.781857 0.418906
0.774258 0.774258 0.41706
0.944106 0.767742 0.420233
1 0.762829 0.423239
0 0.936568 0.443442
0 0.937789 0.439994
0.113787 0.940414 0.43682
0.264317 0.940612 0.43006
0.421134 0.939208 0.421134
0.584833 0.935836 0.412207
0.754208 0.930465 0.407019
0.924407 0.924407 0.406851
1 0.91899 0.409155
0 1 0.433021
0 1 0.429679
0.108476 1 0.427024
0.258579 1 0.421302
0.414054 1 0.414054
0.574639 1 0.406577
0.739849 1 0.400778
0.907652 1 0.398184
1 1 0.398505
0 0 0.703212
0.0551766 0 0.704082
0.20499 0 0.699596
0.359731 0 0.692088
0.516411 0 0.682994
0.672923 0 0.672923
0.828779 0 0.662837
0.98407 0 0.653315
1 0 0.644541
0 0.0445258 0.692378
0.0410468 0.0410468 0.694865
0.19379 0.036347 0.694896
0.352804 0.0306706 0.69073
0.513207 0.0253605 0.682673
0.672435 0.0209354 0.672435
0.829953 0.0172885 0.661952
0.986252 0.0141604 0.652247
1 0.0112917 0.643549
0 0.186862 0.680491
0.0280156 0.184527 0.685069
0.180728 0.180728 0.688731
0.342794 0.174807 0.688289
0.508064 0.16875 0.681926
0.671138 0.163973 0.671138
0.830701 0.160479 0.65977
0.988006 0.157671 0.649744
1 0.155154 0.64126
0 0.333867 0.665446
0.0136568 0.332418 0.669734
0.162615 0.330236 0.675364
0.324559 0.324559 0.679225
0.495659 0.31693 0.677058
0.665171 0.310887 0.665171
0.827192 0.307347 0.65182
0.98529 0.304814 0.641306
1 0.302541 0.633188
0 0.482963 0.649119
0 0.482521 0.651606
0.144289 0.482383 0.655924
0.300465 0.478874 0.66006
0.471046 0.471046 0.665507
0.655222 0.460899 0.655222
0.820935 0.457053 0.637949
0.979644 0.454643 0.627848
1 0.452415 0.621103
0 0.633112 0.633112
0 0.633524 0.633524
0.129976 0.634943 0.634943
0.280659 0.633951 0.633951
0.43743 0.631403 0.631403
0.621546 0.621546 0.621546
0.807492 0.611292 0.611292
0.968994 0.607706 0.607706
1 0.604822 0.604822
0 0.783856 0.618387
0 0.784817 0.617258
0.119982 0.787121 0.616617
0.269032 0.787259 0.612268
0.423285 0.786358 0.603723
0.587442 0.783368 0.587442
0.773358 0.773358 0.577539
0.949081 0.764935 0.582528
1 0.760006 0.585306
0 0.935103 0.605264
0 0.93637 0.603235
0.112627 0.939132 0.601709
0.261418 0.939712 0.596506
0.415381 0.939132 0.588052
0.576226 0.936934 0.576226
0.74757 0.931579 0.565347
0.923888 0.923888 0.563455
1 0.917357 0.566705
0 1 0.593668
0 1 0.591272
0.106706 1 0.589563
0.25539 1 0.584527
0.409018 1 0.577127
0.567849 1 0.567849
0.733104 1 0.558679
0.903777 1 0.553384
1 1 0.553185
0 0 0.857496
0.0518044 0 0.858106
0.199466 0 0.853971
0.353445 0 0.848463
0.509834 0 0.841291
0.66685 0 0.832807
0.824201 0 0.824201
0.979904 0 0.814374
1 0 0.805478
0 0.0424048 0.847684
0.0395666 0.0395666 0.85008
0.190265 0.0356298 0.850477
0.347112 0.0305943 0.847761
0.506386 0.0254826 0.842054
0.665904 0.0208438 0.833936
0.824582 0.0168307 0.824582
0.982177 0.0133669 0.815061
1 0.0102693 0.805997
0 0.184543 0.838026
0.0287938 0.182635 0.842283
0.179553 0.179553 0.845487
0.338262 0.174655 0.845655
0.500725 0.169223 0.842069
0.663676 0.164202 0.834623
0.824918 0.160098 0.824918
0.984115 0.156786 0.814908
1 0.153964 0.805615
0 0.331243 0.825345
0.0161746 0.329976 0.829923
0.164721 0.328038 0.835019
0.323445 0.323445 0.838041
0.488594 0.317464 0.837674
0.656077 0.311482 0.831479
0.82089 0.306889 0.82089
0.981857 0.303593 0.809705
1 0.300999 0.799863
0 0.480232 0.811002
0.00357061 0.479637 0.814725
0.148714 0.479194 0.820081
0.304814 0.475715 0.824506
0.469642 0.469642 0.829984
0.644099 0.461479 0.828794
0.814252 0.456092 0.814252
0.9776 0.452659 0.800946
1 0.450248 0.790509
0 0.630533 0.796109
0 0.630701 0.798383
0.134112 0.631647 0.802289
0.286137 0.629923 0.805066
0.445304 0.626047 0.808896
0.618051 0.618051 0.814328
0.803998 0.607843 0.803998
0.970993 0.604013 0.786664
1 0.601678 0.776562
0 0.781628 0.781628
0 0.782406 0.782406
0.122423 0.784405 0.784405
0.271611 0.784115 0.784115
0.425284 0.782696 0.782696
0.58407 0.77995 0.77995
0.76997 0.76997 0.76997
0.957336 0.759655 0.759655
1 0.756085 0.756085
0 0.933242 0.768109
0 0.934432 0.767712
0.113466 0.937102 0.768261
0.261509 0.937636 0.765835
0.413596 0.937285 0.760967
0.567849 0.936828 0.751446
0.733608 0.933852 0.733608
0.922957 0.922957 0.725582
1 0.914488 0.730632
0 1 0.75581
0 1 0.75465
0.106462 1 0.754406
0.25417 1 0.751034
0.406012 1 0.745235
0.56199 1 0.736446
0.724392 1 0.724392
0.897047 1 0.713344
1 1 0.711421
0 0 1
0.0485237 0 1
0.194995 0 1
0.348104 0 1
0.503914 0 0.998779
0.660868 0 0.991684
0.818067 0 0.983627
0.975097 0 0.975097
1 0 0.966506
0 0.0404669 1
0.0381323 0.0381323 1
0.187381 0.0347448 1
0.342596 0.0302434 1
0.500603 0.0254673 1
0.659693 0.0208591 0.99379
0.818875 0.0166171 0.986038
0.9785 0.0124056 0.9785
1 0.00958267 0.968368
0 0.182513 0.995224
0.0290379 0.180972 0.999207
0.178424 0.178424 1
0.334951 0.174212 1
0.49514 0.169375 1
0.656916 0.164538 0.99527
0.818463 0.160174 0.987701
0.978836 0.156435 0.978836
1 0.153262 0.969741
0 0.328954 0.984344
0.0178225 0.327932 0.988907
0.165789 0.326268 0.9935
0.322408 0.322408 0.996048
0.484123 0.317433 0.996262
0.648753 0.312078 0.992859
0.813443 0.30721 0.985611
0.97612 0.303288 0.97612
1 0.30016 0.966293
0 0.47776 0.971756
0.00645457 0.47718 0.975967
0.151797 0.476707 0.981414
0.307057 0.473564 0.985382
0.468727 0.468742 0.988251
0.635966 0.462684 0.9879
0.805127 0.456748 0.981811
0.971283 0.452232 0.971283
1 0.449058 0.960189
0 0.628046 0.958236
0 0.628077 0.961593
0.138048 0.628733 0.966598
0.29073 0.626734 0.970443
0.449775 0.622889 0.974594
0.616663 0.616663 0.980072
0.792813 0.608454 0.978882
0.964279 0.603082 0.964279
1 0.599695 0.950988
0 0.779293 0.944503
0 0.779889 0.9467
0.125856 0.781552 0.9505
0.275883 0.780789 0.952712
0.430854 0.778622 0.955093
0.59205 0.774563 0.958785
0.766461 0.766461 0.964202
0.953826 0.756176 0.953826
1 0.752377 0.936431
0 0.931167 0.931167
0 0.932219 0.932219
0.115755 0.934661 0.934661
0.264027 0.934874 0.934874
0.41622 0.934112 0.934112
0.571862 0.932464 0.932464
0.732189 0.929625 0.929625
0.919539 0.919539 0.919539
1 0.909163 0.909163
0 1 0.918639
0 1 0.918776
0.107622 1 0.920134
0.255024 1 0.918853
0.406104 1 0.915877
0.560174 1 0.910704
0.715862 1 0.900984
0.882963 1 0.882963
1 1 0.874861
0 0 1
0.044831 0 1
0.19118 0 1
0.343511 0 1
0.498665 0 1
0.655314 0 1
0.812589 0 1
0.970001 0 1
1 0 1
0 0.0386358 1
0.0367132 0.0367132 1
0.184894 0.0337835 1
0.338857 0.0297093 1
0.49572 0.0252689 1
0.654124 0.0208133 1
0.813077 0.0166018 1
0.971893 0.0127108 1
1 0.00915541 1
0 0.180652 1
0.0289464 0.179446 1
0.177295 0.177295 1
0.332265 0.173587 1
0.490761 0.169253 1
0.651225 0.164721 1
0.812314 0.160357 1
0.973327 0.156313 1
1 0.151522 1
0 0.326925 1
0.0189364 0.326146 1
0.166293 0.324758 1
0.321416 0.321416 1
0.480888 0.317113 1
0.643229 0.312352 1
0.806714 0.307652 1
0.969711 0.303456 1
1 0.299901 1
0 0.475517 1
0.00862135 0.475044 1
0.153903 0.474647 1
0.308263 0.47187 1
0.467765 0.467765 1
0.631525 0.46273 1
0.797818 0.45742 1
0.963867 0.452644 1
1 0.448798 1
0 0.625772 1
0 0.625742 1
0.141283 0.626291 1
0.29398 0.624277 1
0.45214 0.620798 1
0.615824 0.615824 1
0.78468 0.609735 1
0.955139 0.603784 1
1 0.599298 1
0 0.77705 1
0 0.777523 1
0.129335 0.778943 1
0.279988 0.777905 1
0.435584 0.775464 1
0.596628 0.771435 1
0.765072 0.765072 1
0.943709 0.756237 1
1 0.751446 1
0 0.92903 1
0 0.929946 1
0.11873 0.932143 1
0.267597 0.932036 1
0.420584 0.9308 1
0.577539 0.928405 1
0.740276 0.924208 1
0.915877 0.915877 1
1 0.905653 1
0 1 1
0 1 1
0.109758 1 1
0.257389 1 1
0.408682 1 1
0.562829 1 1
0.719966 1 1
0.881559 1 1
1 1 1
