graphics/lut/pop_it.cube
TITLE "Generated by Resolve"
LUT_3D_SIZE 5
0 0 0
0.234409 0 0
0.531609 0 0
0.832731 0 0
1 0 0
0 0.20087 0
0.190173 0.190173 0
0.510262 0.178347 0
0.82269 0.170092 0
1 0.163226 0
0 0.49012 0
0.156359 0.487297 0
0.478157 0.478157 0
0.799558 0.469093 0
1 0.461616 0
0 0.786191 0
0.136324 0.786633 0
0.45124 0.781323 0
0.773632 0.773632 0
1 0.766094 0
0 1 0
0.121599 1 0
0.431312 1 0
0.750912 1 0
1 1 0
0 0 0.242679
0.229755 0 0.229755
0.533501 0 0.200443
0.836545 0 0.182605
1 0 0.169894
0 0.197116 0.197116
0.186831 0.186831 0.186831
0.521904 0.172808 0.172808
0.831617 0.166415 0.166415
1 0.160662 0.160662
0 0.490486 0.159274
0.142931 0.490562 0.142931
0.478492 0.478492 0.131533
0.807675 0.467063 0.137179
1 0.459632 0.139559
0 0.787717 0.137072
0.12723 0.789624 0.12723
0.444343 0.784451 0.115618
0.774701 0.774701 0.113603
1 0.765774 0.117235
0 1 0.12105
0.114946 1 0.114946
0.42443 1 0.106157
0.747692 1 0.100511
1 1 0.10045
0 0 0.549294
0.2121 0 0.545403
0.523308 0 0.523308
0.833021 0 0.501656
1 0 0.48426
0 0.189593 0.522026
0.181964 0.181964 0.531441
0.517143 0.168246 0.517143
0.83418 0.16173 0.492958
1 0.156817 0.477913
0 0.485863 0.485863
0.138979 0.486397 0.486397
0.474525 0.474525 0.474525
0.818952 0.4607 0.4607
1 0.455085 0.455085
0 0.785794 0.455497
0.11986 0.789166 0.44892
0.429572 0.787091 0.429572
0.774258 0.774258 0.41706
1 0.762829 0.423239
0 1 0.433021
0.108476 1 0.427024
0.414054 1 0.414054
0.739849 1 0.400778
1 1 0.398505
0 0 0.857496
0.199466 0 0.853971
0.509834 0 0.841291
0.824201 0 0.824201
1 0 0.805478
0 0.184543 0.838026
0.179553 0.179553 0.845487
0.500725 0.169223 0.842069
0.824918 0.160098 0.824918
1 0.153964 0.805615
0 0.480232 0.811002
0.148714 0.479194 0.820081
0.469642 0.469642 0.829984
0.814252 0.456092 0.814252
1 0.450248 0.790509
0 0.781628 0.781628
0.122423 0.784405 0.784405
0.425284 0.782696 0.782696
0.76997 0.76997 0.76997
1 0.756085 0.756085
0 1 0.75581
0.106462 1 0.754406
0.406012 1 0.745235
0.724392 1 0.724392
1 1 0.711421
0 0 1
0.19118 0 1
0.498665 0 1
0.812589 0 1
1 0 1
0 0.180652 1
0.177295 0.177295 1
0.490761 0.169253 1
0.812314 0.160357 1
1 0.151522 1
0 0.475517 1
0.153903 0.474647 1
0.467765 0.467765 1
0.797818 0.45742 1
1 0.448798 1
0 0.77705 1
0.129335 0.778943 1
0.435584 0.775464 1
0.765072 0.765072 1
1 0.751446 1
0 1 1
0.109758 1 1
0.408682 1 1
0.719966 1 1
1 1 1
