graphics/lut/pop_it.cube
TITLE "Generated by Resolve"
LUT_3D_SIZE 33
0 0 0
0 0 0
0.011429 0 0
0.0475471 0 0
0.0847944 0 0
0.122179 0 0
0.159594 0 0
0.197009 0 0
0.234409 0 0
0.271794 0 0
0.309148 0 0
0.346471 0 0
0.383734 0 0
0.42089 0 0
0.457862 0 0
0.494499 0 0
0.531609 0 0
0.568917 0 0
0.606363 0 0
0.6439 0 0
0.681529 0 0
0.719234 0 0
0.757015 0 0
0.794842 0 0
0.832731 0 0
0.87068 0 0
0.908675 0 0
0.9467 0 0
0.984787 0 0
1 0 0
1 0 0
1 0 0
1 0 0
0 0 0
0 0 0
0.00123598 0 0
0.0399176 0 0
0.0783246 0 0
0.116426 0 0
0.154284 0 0
0.191974 0 0
0.229511 0 0
0.266926 0 0
0.304189 0 0
0.341054 0 0
0.377951 0 0
0.415198 0 0
0.452598 0 0
0.490105 0 0
0.527687 0 0
0.565347 0 0
0.603082 0 0
0.640848 0 0
0.678691 0 0
0.716579 0 0
0.754513 0 0
0.792508 0 0
0.830533 0 0
0.868605 0 0
0.906706 0 0
0.944854 0 0
0.983047 0 0
1 0 0
1 0 0
1 0 0
1 0 0
0 0 0
0 0 0
0 0 0
0.0302281 0 0
0.070222 0 0
0.109346 0 0
0.147814 0 0
0.185748 0 0
0.223011 0 0
0.260502 0 0
0.298116 0 0
0.335775 0 0
0.37348 0 0
0.411231 0 0
0.449012 0 0
0.486839 0 0
0.524681 0 0
0.562585 0 0
0.600519 0 0
0.638498 0 0
0.676509 0 0
0.714549 0 0
0.752621 0 0
0.790738 0 0
0.828901 0 0
0.867079 0 0
0.905287 0 0
0.943542 0 0
0.981811 0 0
1 0 0
1 0 0
1 0 0
1 0 0
0 0.0301366 0
0 0.0276493 0
0 0.0244297 0
0.0214389 0.0214389 0
0.0613718 0.0185702 0
0.100877 0.0154574 0
0.140093 0.0130312 0
0.178912 0.0109712 0
0.217456 0.00915541 0
0.255802 0.0075227 0
0.294041 0.00602731 0
0.332204 0.00462348 0
0.370321 0.00331121 0
0.408408 0.00204471 0
0.446479 0.000854505 0
0.484565 0 0
0.522652 0 0
0.560754 0 0
0.598871 0 0
0.637003 0 0
0.675166 0 0
0.713344 0 0
0.751553 0 0
0.789792 0 0
0.828046 0 0
0.866331 0 0
0.904662 0 0
0.942992 0 0
0.981353 0 0
1 0 0
1 0 0
1 0 0
1 0 0
0 0.0637217 0
0 0.0609293 0
0 0.0578775 0
0.0127718 0.0550851 0
0.0527352 0.0527352 0
0.0937057 0.0501717 0
0.134173 0.0478523 0
0.17406 0.0457771 0
0.213474 0.043946 0
0.252552 0.0422827 0
0.291386 0.0407568 0
0.330037 0.0393225 0
0.368566 0.037995 0
0.407034 0.0367437 0
0.445426 0.0355535 0
0.483787 0.0343938 0
0.522118 0.0332952 0
0.560433 0.0322271 0
0.598749 0.0311894 0
0.637079 0.0301671 0
0.675395 0.0291905 0
0.713741 0.0282292 0
0.752087 0.0272679 0
0.790448 0.0263523 0
0.828824 0.0254368 0
0.867216 0.0245365 0
0.905638 0.0236362 0
0.944076 0.0227665 0
0.982528 0.0218967 0
1 0.0210422 0
1 0.0201877 0
1 0.0193332 0
1 0.0184939 0
0 0.0964065 0
0 0.0944839 0
0 0.0923781 0
0.00570687 0.0902419 0
0.0451057 0.0884565 0
0.086183 0.086183 0
0.127214 0.0839246 0
0.167803 0.0818341 0
0.207919 0.0799268 0
0.247639 0.0781872 0
0.287037 0.076585 0
0.326192 0.0751202 0
0.365164 0.0737469 0
0.403983 0.0724498 0
0.44271 0.0712139 0
0.481376 0.0700542 0
0.519966 0.068925 0
0.558526 0.0678569 0
0.59707 0.066804 0
0.635569 0.0657816 0
0.674083 0.0647898 0
0.712581 0.0638285 0
0.75108 0.0628824 0
0.789593 0.0619516 0
0.828107 0.0610513 0
0.866636 0.0601511 0
0.90518 0.059266 0
0.943725 0.0583963 0
0.982284 0.0575418 0
1 0.0566873 0
1 0.055848 0
1 0.0549935 0
1 0.0541695 0
0 0.130709 0
0 0.129168 0
0 0.127443 0
0 0.12575 0
0.0386206 0.124407 0
0.0792706 0.122469 0
0.120378 0.120378 0
0.161334 0.118334 0
0.201938 0.116411 0
0.242161 0.114611 0
0.282048 0.112963 0
0.32166 0.111421 0
0.361044 0.110002 0
0.400229 0.108659 0
0.439292 0.107393 0
0.478233 0.106188 0
0.517098 0.105043 0
0.555886 0.103929 0
0.594644 0.102876 0
0.633356 0.101839 0
0.672038 0.100847 0
0.710704 0.0998703 0
0.749371 0.0989242 0
0.788006 0.0979934 0
0.826658 0.0970779 0
0.865309 0.0961776 0
0.90396 0.0953078 0
0.942611 0.0944381 0
0.981292 0.0935836 0
1 0.0927291 0
1 0.0918898 0
1 0.0910658 0
1 0.0902419 0
0 0.165591 0
0 0.164279 0
0 0.16289 0
0 0.161517 0
0.0331884 0.160494 0
0.073228 0.158907 0
0.114092 0.157031 0
0.155093 0.155093 0
0.195956 0.153216 0
0.236545 0.151415 0
0.276829 0.149722 0
0.316808 0.14815 0
0.356558 0.14667 0
0.396109 0.145281 0
0.435477 0.143969 0
0.474708 0.142733 0
0.513832 0.141558 0
0.552865 0.140414 0
0.591821 0.13933 0
0.630732 0.138277 0
0.669612 0.13727 0
0.708446 0.136278 0
0.74725 0.135317 0
0.786038 0.134371 0
0.824826 0.133455 0
0.8636 0.132555 0
0.902373 0.131685 0
0.941146 0.130816 0
0.979904 0.129961 0
1 0.129107 0
1 0.128267 0
1 0.127443 0
1 0.126619 0
0 0.20087 0
0 0.199741 0
0 0.198581 0
0 0.197421 0
0.0285649 0.196674 0
0.0679179 0.195377 0
0.1084 0.193744 0
0.149279 0.191974 0
0.190173 0.190173 0
0.230945 0.188418 0
0.271489 0.186725 0
0.311788 0.185122 0
0.351858 0.183612 0
0.391714 0.182193 0
0.431373 0.180835 0
0.470878 0.179553 0
0.510262 0.178347 0
0.549523 0.177188 0
0.588708 0.176074 0
0.627817 0.17499 0
0.666865 0.173953 0
0.705867 0.172961 0
0.744839 0.171969 0
0.783764 0.171023 0
0.82269 0.170092 0
0.861585 0.169192 0
0.900465 0.168292 0
0.939361 0.167422 0
0.978225 0.166567 0
1 0.165713 0
1 0.164874 0
1 0.16405 0
1 0.163226 0
0 0.236423 0
0 0.235447 0
0 0.23444 0
0 0.233463 0
0.0245365 0.232914 0
0.0632639 0.231891 0
0.103304 0.230488 0
0.143908 0.228885 0
0.184726 0.227222 0
0.225528 0.225528 0
0.266224 0.223865 0
0.306722 0.222278 0
0.347036 0.220752 0
0.387152 0.219303 0
0.42707 0.217914 0
0.466835 0.216602 0
0.506447 0.215366 0
0.545937 0.214176 0
0.585336 0.213031 0
0.624643 0.211933 0
0.663874 0.210864 0
0.703044 0.209842 0
0.742168 0.20885 0
0.781247 0.207874 0
0.82031 0.206943 0
0.859342 0.206027 0
0.898344 0.205127 0
0.937346 0.204242 0
0.976318 0.203372 0
1 0.202533 0
1 0.201678 0
1 0.200855 0
1 0.200046 0
0 0.272206 0
0 0.271336 0
0 0.270466 0
0 0.269657 0
0.0209964 0.26923 0
0.0591287 0.268467 0
0.0987411 0.267247 0
0.139025 0.265843 0
0.179644 0.264302 0
0.220386 0.262715 0
0.261128 0.261128 0
0.301747 0.259556 0
0.342214 0.25803 0
0.382528 0.25658 0
0.422675 0.255192 0
0.462654 0.253849 0
0.50248 0.252583 0
0.542184 0.251347 0
0.581781 0.250187 0
0.621271 0.249058 0
0.660685 0.247974 0
0.700023 0.246937 0
0.739315 0.245914 0
0.778546 0.244938 0
0.817731 0.243977 0
0.856886 0.243046 0
0.896025 0.242145 0
0.935134 0.241245 0
0.974227 0.240375 0
1 0.239521 0
1 0.238666 0
1 0.237827 0
1 0.237003 0
0 0.308186 0
0 0.307424 0
0 0.306661 0
0 0.305959 0
0.0178531 0.305638 0
0.0554055 0.305074 0
0.0946365 0.304067 0
0.134585 0.302815 0
0.174975 0.301411 0
0.215564 0.299931 0
0.25626 0.298421 0
0.29691 0.29691 0
0.337484 0.29543 0
0.377935 0.29398 0
0.418235 0.292576 0
0.458396 0.291234 0
0.498421 0.289937 0
0.538308 0.288701 0
0.578088 0.28751 0
0.617761 0.286366 0
0.657343 0.285252 0
0.696849 0.284184 0
0.736294 0.283162 0
0.775662 0.282155 0
0.814984 0.281193 0
0.854276 0.280247 0
0.893523 0.279316 0
0.932754 0.278416 0
0.971954 0.277531 0
1 0.276661 0
1 0.275807 0
1 0.274968 0
1 0.274144 0
0 0.34432 0
0 0.343633 0
0 0.342977 0
0 0.342367 0
0.0150759 0.342061 0
0.0520333 0.341756 0
0.0908827 0.340887 0
0.13051 0.339788 0
0.170642 0.338521 0
0.211063 0.337163 0
0.251637 0.335744 0
0.292256 0.334295 0
0.33286 0.33286 0
0.373388 0.331441 0
0.413809 0.330068 0
0.454108 0.328725 0
0.494285 0.327413 0
0.53434 0.326162 0
0.574273 0.324956 0
0.614115 0.323796 0
0.653864 0.322667 0
0.693523 0.321584 0
0.733104 0.320531 0
0.772625 0.319524 0
0.812085 0.318517 0
0.851499 0.317571 0
0.890883 0.316625 0
0.93022 0.315709 0
0.969528 0.314824 0
1 0.313939 0
1 0.313085 0
1 0.31223 0
1 0.311391 0
0 0.380575 0
0 0.379965 0
0 0.379385 0
0 0.378882 0
0.0124666 0.378637 0
0.0489357 0.3785 0
0.0874495 0.377768 0
0.126787 0.376806 0
0.166659 0.375677 0
0.206882 0.374426 0
0.247318 0.373114 0
0.287861 0.371756 0
0.328435 0.370367 0
0.368978 0.368978 0
0.409476 0.36762 0
0.449866 0.366293 0
0.490166 0.364996 0
0.530358 0.363745 0
0.570443 0.362539 0
0.610422 0.361349 0
0.650309 0.36022 0
0.690105 0.359106 0
0.729824 0.358038 0
0.769482 0.357015 0
0.809079 0.356008 0
0.848615 0.355032 0
0.888121 0.354086 0
0.927565 0.353155 0
0.96698 0.352255 0
1 0.35137 0
1 0.3505 0
1 0.34963 0
1 0.348791 0
0 0.416983 0
0 0.416434 0
0 0.415915 0
0 0.415488 0
0.00996414 0.41532 0
0.0460822 0.415305 0
0.0842908 0.41471 0
0.123369 0.41387 0
0.162982 0.412863 0
0.202991 0.411719 0
0.243259 0.410498 0
0.283696 0.409216 0
0.324208 0.407904 0
0.364736 0.406577 0
0.405249 0.405249 0
0.445716 0.403952 0
0.486076 0.402655 0
0.526375 0.401404 0
0.566567 0.400198 0
0.606683 0.399008 0
0.646693 0.397864 0
0.686625 0.39675 0
0.726482 0.395682 0
0.766262 0.394629 0
0.805982 0.393606 0
0.84564 0.392615 0
0.885237 0.391653 0
0.924788 0.390707 0
0.964309 0.389792 0
1 0.388891 0
1 0.388006 0
1 0.387137 0
1 0.386282 0
0 0.453483 0
0 0.45301 0
0 0.452552 0
0 0.452186 0
0.00756847 0.452064 0
0.0433967 0.452171 0
0.0813458 0.451682 0
0.120165 0.45095 0
0.159548 0.45005 0
0.199344 0.449012 0
0.239445 0.447898 0
0.279744 0.446693 0
0.32018 0.445457 0
0.360662 0.44419 0
0.40116 0.442908 0
0.441627 0.441627 0
0.482063 0.440375 0
0.522423 0.439139 0
0.562722 0.437934 0
0.60293 0.436744 0
0.643046 0.435584 0
0.683085 0.43447 0
0.723064 0.433387 0
0.762966 0.432334 0
0.802792 0.431296 0
0.842557 0.430304 0
0.882277 0.429328 0
0.92195 0.428367 0
0.961578 0.427436 0
1 0.426535 0
1 0.425635 0
1 0.424765 0
1 0.423911 0
0 0.49012 0
0 0.489693 0
0 0.489281 0
0 0.488991 0
0.00531014 0.488899 0
0.0408789 0.489097 0
0.0785992 0.488731 0
0.117189 0.488106 0
0.156359 0.487297 0
0.195972 0.486366 0
0.235889 0.485328 0
0.276051 0.484215 0
0.31635 0.48304 0
0.356771 0.481834 0
0.397223 0.480613 0
0.437705 0.479377 0
0.478157 0.478157 0
0.518547 0.476921 0
0.558907 0.475731 0
0.599191 0.474556 0
0.639399 0.473411 0
0.679545 0.472297 0
0.719615 0.471199 0
0.759609 0.47013 0
0.799558 0.469093 0
0.839429 0.468086 0
0.879255 0.467109 0
0.91902 0.466133 0
0.958755 0.465202 0
0.998428 0.464271 0
1 0.463371 0
1 0.462486 0
1 0.461616 0
0 0.526848 0
0 0.526452 0
0 0.526116 0
0 0.525856 0
0.00314336 0.525826 0
0.0385138 0.526116 0
0.0760052 0.525826 0
0.114397 0.525277 0
0.153368 0.524575 0
0.192782 0.52372 0
0.232532 0.522774 0
0.272541 0.521737 0
0.312734 0.520653 0
0.353063 0.519509 0
0.393454 0.518334 0
0.43389 0.517143 0
0.474342 0.515953 0
0.514763 0.514763 0
0.555154 0.513588 0
0.595499 0.512428 0
0.635782 0.511284 0
0.676005 0.51017 0
0.716167 0.509087 0
0.756252 0.508019 0
0.796292 0.506966 0
0.836255 0.505959 0
0.876173 0.504952 0
0.916045 0.50399 0
0.955856 0.503044 0
0.995636 0.502113 0
1 0.501198 0
1 0.500298 0
1 0.499428 0
0 0.563668 0
0 0.563317 0
0 0.563027 0
0 0.562814 0
0.00106813 0.562814 0
0.0362707 0.56318 0
0.0735637 0.562982 0
0.111757 0.562524 0
0.150561 0.561898 0
0.189807 0.561135 0
0.229389 0.560265 0
0.269245 0.559304 0
0.3093 0.558282 0
0.349523 0.557198 0
0.389853 0.556085 0
0.430243 0.554955 0
0.470665 0.553811 0
0.511086 0.552651 0
0.551492 0.551492 0
0.591867 0.550347 0
0.632212 0.549233 0
0.672496 0.548119 0
0.712718 0.547036 0
0.75288 0.545968 0
0.792996 0.544915 0
0.833066 0.543893 0
0.873075 0.542901 0
0.913024 0.541924 0
0.952926 0.540978 0
0.992782 0.540032 0
1 0.539117 0
1 0.538201 0
1 0.537316 0
0 0.600565 0
0 0.600259 0
0 0.6 0
0 0.599847 0
0 0.599863 0
0.0341344 0.600305 0
0.0712444 0.600183 0
0.10927 0.599802 0
0.14789 0.599237 0
0.186969 0.598566 0
0.226398 0.597757 0
0.266117 0.596887 0
0.306065 0.595926 0
0.346166 0.594919 0
0.386404 0.593866 0
0.426719 0.592767 0
0.467109 0.591669 0
0.507515 0.590555 0
0.547921 0.589426 0
0.588312 0.588312 0
0.628687 0.587213 0
0.669001 0.586114 0
0.709285 0.585031 0
0.749523 0.583963 0
0.789715 0.582925 0
0.829847 0.581903 0
0.869917 0.580896 0
0.909957 0.579919 0
0.94995 0.578958 0
0.989883 0.578012 0
1 0.577096 0
1 0.576181 0
1 0.575296 0
0 0.637552 0
0 0.637278 0
0 0.637064 0
0 0.636927 0
0 0.637003 0
0.0320745 0.637491 0
0.0690166 0.637446 0
0.106905 0.637125 0
0.145373 0.636652 0
0.184298 0.636027 0
0.223575 0.635309 0
0.263157 0.634501 0
0.302968 0.6336 0
0.342962 0.632654 0
0.383108 0.631662 0
0.423362 0.630625 0
0.463691 0.629572 0
0.504051 0.628489 0
0.544442 0.62739 0
0.584833 0.626307 0
0.625223 0.625223 0
0.665583 0.62414 0
0.705913 0.623072 0
0.746181 0.622019 0
0.786419 0.620981 0
0.826627 0.619974 0
0.866773 0.618967 0
0.906889 0.61799 0
0.946944 0.617029 0
0.986954 0.616068 0
1 0.615137 0
1 0.614221 0
1 0.613336 0
0 0.674601 0
0 0.674357 0
0 0.674174 0
0 0.674083 0
0 0.674174 0
0.0301061 0.674723 0
0.0668803 0.674739 0
0.104616 0.674479 0
0.142947 0.674052 0
0.181735 0.673503 0
0.220874 0.672862 0
0.260319 0.672099 0
0.300008 0.671275 0
0.339895 0.67039 0
0.37995 0.669459 0
0.420111 0.668467 0
0.460365 0.66746 0
0.500694 0.666423 0
0.541054 0.66537 0
0.58143 0.664317 0
0.62182 0.663249 0
0.662196 0.662196 0
0.702541 0.661143 0
0.74287 0.660105 0
0.783154 0.659083 0
0.823407 0.658061 0
0.863615 0.657069 0
0.903777 0.656077 0
0.943908 0.655131 0
0.983993 0.654169 0
1 0.653254 0
1 0.652338 0
1 0.651423 0
0 0.711727 0
0 0.711513 0
0 0.71136 0
0 0.711315 0
0 0.711437 0
0.0282139 0.712016 0
0.0648356 0.712093 0
0.102449 0.711894 0
0.140642 0.711543 0
0.179309 0.711055 0
0.218311 0.71046 0
0.257633 0.709773 0
0.297215 0.70901 0
0.336996 0.708171 0
0.376928 0.707286 0
0.417014 0.706355 0
0.457206 0.705394 0
0.497475 0.704402 0
0.537789 0.703395 0
0.578149 0.702358 0
0.618524 0.70132 0
0.6589 0.700298 0
0.699275 0.699275 0
0.73962 0.698238 0
0.779934 0.69723 0
0.820218 0.696223 0
0.860487 0.695232 0
0.90071 0.694255 0
0.940887 0.693294 0
0.981033 0.692348 0
1 0.691417 0
1 0.690501 0
1 0.689601 0
0 0.748928 0
0 0.748745 0
0 0.748623 0
0 0.748608 0
0 0.74876 0
0.0263828 0.749371 0
0.0628824 0.749508 0
0.100359 0.749371 0
0.138445 0.749065 0
0.176974 0.748623 0
0.215885 0.748089 0
0.25507 0.747448 0
0.29453 0.746746 0
0.334203 0.745968 0
0.374044 0.745144 0
0.414054 0.744274 0
0.454154 0.743343 0
0.494362 0.742397 0
0.534646 0.741421 0
0.57496 0.740429 0
0.61532 0.739437 0
0.65568 0.73843 0
0.696056 0.737423 0
0.736416 0.736416 0
0.776761 0.735409 0
0.817075 0.734417 0
0.857374 0.73344 0
0.897642 0.732464 0
0.937865 0.731517 0
0.978073 0.730571 0
1 0.729641 0
1 0.728725 0
1 0.72781 0
0 0.786191 0
0 0.786038 0
0 0.785946 0
0 0.785962 0
0 0.78613 0
0.0246281 0.786786 0
0.0609751 0.786969 0
0.0983444 0.786892 0
0.136324 0.786633 0
0.174746 0.786252 0
0.213535 0.785763 0
0.252628 0.785183 0
0.291966 0.784527 0
0.331533 0.78381 0
0.371298 0.783032 0
0.4112 0.782208 0
0.45124 0.781323 0
0.491371 0.780423 0
0.531594 0.779492 0
0.571878 0.778531 0
0.612207 0.777569 0
0.652552 0.776593 0
0.692912 0.775601 0
0.733272 0.774609 0
0.773632 0.773632 0
0.813977 0.772656 0
0.854307 0.771695 0
0.894606 0.770718 0
0.934874 0.769772 0
0.975113 0.768841 0
1 0.76791 0
1 0.766995 0
1 0.766094 0
0 0.823529 0
0 0.823392 0
0 0.823331 0
0 0.823362 0
0 0.82356 0
0.0229191 0.824247 0
0.059144 0.824491 0
0.0964065 0.824445 0
0.134279 0.824231 0
0.172595 0.823911 0
0.211292 0.823468 0
0.250263 0.822934 0
0.289525 0.822339 0
0.328984 0.821653 0
0.368643 0.820935 0
0.408469 0.820142 0
0.448417 0.819318 0
0.488502 0.818463 0
0.528664 0.817563 0
0.568887 0.816648 0
0.609171 0.815717 0
0.6495 0.814755 0
0.689845 0.813809 0
0.730205 0.812848 0
0.770565 0.811887 0
0.810925 0.810925 0
0.85127 0.809964 0
0.8916 0.809018 0
0.931899 0.808072 0
0.972183 0.807157 0
1 0.806226 0
1 0.80531 0
1 0.80441 0
0 0.860914 0
0 0.860807 0
0 0.860777 0
0 0.860822 0
0 0.861051 0
0.0212558 0.861753 0
0.0573739 0.862058 0
0.0945449 0.862058 0
0.132311 0.861891 0
0.17052 0.861601 0
0.20911 0.861204 0
0.248005 0.860731 0
0.28716 0.860166 0
0.326528 0.859541 0
0.366094 0.858854 0
0.405844 0.858122 0
0.445716 0.857343 0
0.48571 0.856519 0
0.525811 0.855665 0
0.566003 0.85478 0
0.606241 0.85388 0
0.646525 0.852964 0
0.686854 0.852033 0
0.727199 0.851102 0
0.767559 0.850156 0
0.807919 0.849226 0
0.84828 0.84828 0
0.888624 0.847349 0
0.928954 0.846418 0
0.969253 0.845487 0
1 0.844572 0
1 0.843671 0
1 0.842756 0
0 0.898344 0
0 0.898268 0
0 0.898238 0
0 0.898314 0
0 0.898558 0
0.0196231 0.89929 0
0.0556191 0.899626 0
0.0926833 0.899672 0
0.130373 0.89955 0
